X: 311
T:Hé Diex! Quant verrai
C:Adam de la Halle
F:https://gallica.bnf.fr/ark:/12148/btv1b6001348v/f75.item
F:https://archive.org/details/oeuvrescompltes00cousgoog/page/n310
Z:Ali Corbin <ali.corbin:gmail.com>
N: (condensed)
M:3/4
L:1/4
Q:1/4=120
K:F lydian
%
%%MIDI program 1       42 Cello
%%MIDI program 2       72 piccolo
%%MIDI program 3       70 bassoon
V:1 clef=treble
V:2 clef=treble_8
V:3 clef=treble_8
%
[V:1]        C2 ((3:2:2F/G)|      A2   ((3G/F/E/)| D2  ((3:2:2E/F)|      G ((3G/E/D/) B, | C3  ||
[V:2]        F2        F   |(3:2:2E/DE ((3E/D/C/)| B,2        C   |(3:2:2D/C  D       E  | F3  ||
[V:3]        F,2       F,  |      A,2     A,     | G,2        A,  |      G,2          G, | F,3 ||
w:    1.4.7.~Hé       Diex!      quant    ver-     rai  2.8.~Che-        li          que  j'aim.
w:  3.~~~~~~~Cer-     tes         je      ne       sai.       ~          ~            ~    ~
w: 5.~~~~~~~~De       vir         son     cor      gai 6.~~~~Muir        tout         de  faim.
W:
W:Hé Diex! quant verrai % Oh God! When will I see 
W:Cheli que j'aim.      % The one that I love. 
W:
W:Certes je ne sai.     % Surely I don't know. 	 
W:
W:
W:Hé Diex! quant verrai 
W:
W:De vir son cor gai    % Of seeing that gay body 
W:Muir tout de faim.    % I die all of hunger 
W:
W:Hé Diex! quant verrai 
W:Cheli que j'aim.


